public/images/brand_logos/airbnb.svg

<svg width="91" height="28" viewBox="0 0 91 28" fill="none" xmlns="http://www.w3.org/2000/svg">
<g clip-path="url(#clip0)">
<path d="M26.2996 19.8443C26.1584 19.5031 26.026 19.1443 25.8849 18.8381L25.2319 17.3768L25.2054 17.3506C23.2643 13.1506 21.1907 8.88059 18.9937 4.68059L18.9054 4.50559C18.6849 4.09434 18.4643 3.63934 18.2349 3.21934C17.9525 2.72059 17.679 2.18684 17.229 1.67934C16.7903 1.14833 16.2383 0.720506 15.6127 0.426739C14.9871 0.132972 14.3035 -0.0194092 13.6113 -0.0194092C12.9191 -0.0194092 12.2356 0.132972 11.61 0.426739C10.9844 0.720506 10.4323 1.14833 9.99368 1.67934C9.57898 2.18684 9.27015 2.72059 8.9878 3.21934C8.76721 3.67434 8.54663 4.12059 8.31721 4.53184L8.22898 4.70684C6.06721 8.90684 3.95839 13.1768 2.01721 17.3768L1.96427 17.4293C1.77016 17.8843 1.54074 18.3568 1.32016 18.8643C1.17898 19.1706 1.0378 19.5031 0.896626 19.8706C0.515478 20.8329 0.393766 21.8771 0.543484 22.9003C0.693202 23.9234 1.10918 24.8903 1.75043 25.7054C2.39168 26.5206 3.23606 27.1561 4.20035 27.5491C5.16465 27.9421 6.21558 28.0792 7.24957 27.9468C8.24086 27.8174 9.1954 27.49 10.0554 26.9843C11.2025 26.3456 12.3054 25.4181 13.5407 24.0793C14.776 25.4181 15.9054 26.3456 17.026 26.9931C18.1037 27.6203 19.324 27.9665 20.5731 27.9993C22.0196 28.0053 23.4194 27.4921 24.5141 26.5545C25.6088 25.6168 26.3245 24.3181 26.529 22.8981C26.7653 21.8776 26.6853 20.8102 26.2996 19.8356V19.8443ZM13.629 21.2968C12.1113 19.3718 11.1231 17.6043 10.7878 16.0906C10.6489 15.5297 10.6189 14.9476 10.6996 14.3756C10.7613 13.9293 10.929 13.5356 11.1584 13.2031C11.6878 12.4418 12.6143 11.9693 13.629 11.9693C14.1109 11.9547 14.5889 12.059 15.0201 12.2728C15.4513 12.4866 15.8222 12.8033 16.0996 13.1943C16.329 13.5443 16.4966 13.9293 16.5496 14.3756C16.6378 14.8831 16.6025 15.4693 16.4613 16.0906C16.126 17.5781 15.1378 19.3631 13.629 21.2968ZM24.8702 22.5918C24.7699 23.3128 24.4809 23.9951 24.0319 24.5708C23.583 25.1465 22.9898 25.5955 22.3113 25.8731C21.6407 26.1531 20.8996 26.2318 20.176 26.1531C19.4702 26.0656 18.7643 25.8381 18.0407 25.4181C16.8394 24.6818 15.7592 23.767 14.8378 22.7056C16.6907 20.4306 17.8113 18.3568 18.2349 16.5106C18.4378 15.6356 18.4643 14.8481 18.376 14.1218C18.2659 13.4335 18.007 12.7768 17.6172 12.1968C17.1722 11.5679 16.5781 11.0571 15.8873 10.7092C15.1965 10.3614 14.4301 10.1871 13.6554 10.2018C12.0231 10.2018 10.5672 10.9543 9.68486 12.1881C9.28766 12.7666 9.03096 13.4285 8.93486 14.1218C8.82016 14.8568 8.84663 15.6706 9.07604 16.5106C9.49957 18.3568 10.6466 20.4568 12.4731 22.7231C11.5673 23.8047 10.4846 24.7276 9.27015 25.4531C8.5378 25.8731 7.84074 26.0918 7.13486 26.1793C6.03711 26.3188 4.92823 26.0229 4.04924 25.3561C3.17025 24.6892 2.5922 23.7053 2.44074 22.6181C2.35251 21.9181 2.41427 21.2181 2.69663 20.4306C2.78486 20.1506 2.91721 19.8706 3.05839 19.5381C3.25251 19.0831 3.48192 18.6106 3.70251 18.1381L3.7378 18.0768C5.64368 13.9031 7.72604 9.64184 9.8878 5.46809L9.97604 5.29309C10.1966 4.87309 10.4172 4.42684 10.6466 4.00684C10.876 3.56059 11.1231 3.13184 11.4407 2.78184C11.7157 2.45636 12.0593 2.1946 12.4472 2.01501C12.8352 1.83541 13.2582 1.74233 13.6863 1.74233C14.1145 1.74233 14.5375 1.83541 14.9254 2.01501C15.3134 2.1946 15.657 2.45636 15.9319 2.78184C16.2407 3.13184 16.4966 3.56059 16.726 4.00684C16.9466 4.42684 17.1672 4.88184 17.3966 5.29309L17.4849 5.46809C19.6378 9.64184 21.7202 13.9031 23.6613 18.0768L23.6878 18.1031C23.9172 18.5581 24.1113 19.0656 24.3319 19.5031C24.4731 19.8443 24.6143 20.1156 24.7025 20.4043C24.8702 21.1918 24.9584 21.8918 24.8702 22.5918ZM37.1525 21.1043C36.4876 21.114 35.8291 20.9751 35.2257 20.6979C34.6224 20.4207 34.0897 20.0123 33.6672 19.5031C32.7179 18.4181 32.214 17.019 32.2554 15.5831C32.2409 14.1159 32.761 12.6928 33.7202 11.5756C34.1638 11.0599 34.7161 10.6469 35.338 10.3657C35.96 10.0845 36.6366 9.94197 37.3202 9.94809C37.9633 9.93063 38.6004 10.0757 39.1715 10.3696C39.7426 10.6634 40.229 11.0965 40.5849 11.6281L40.6731 10.2543H43.2496V20.8243H40.6643L40.576 19.2843C40.2091 19.8519 39.702 20.3171 39.1028 20.6356C38.5036 20.9541 37.8323 21.1155 37.1525 21.1043ZM37.8231 18.5843C38.3349 18.5843 38.7849 18.4443 39.2084 18.1906C39.5966 17.9106 39.9143 17.5431 40.1613 17.0968C40.3819 16.6506 40.4966 16.1168 40.4966 15.5218C40.531 15.0051 40.4296 14.4883 40.2022 14.022C39.9749 13.5558 39.6294 13.156 39.1996 12.8618C38.7866 12.6067 38.3097 12.4714 37.8231 12.4714C37.3365 12.4714 36.8596 12.6067 36.4466 12.8618C36.0584 13.1418 35.7407 13.5093 35.4937 13.9556C35.2603 14.4477 35.1456 14.9869 35.1584 15.5306C35.124 16.0474 35.2254 16.5642 35.4528 17.0304C35.6801 17.4967 36.0256 17.8964 36.4554 18.1906C36.8702 18.4443 37.3202 18.5843 37.8231 18.5843ZM47.6613 7.40184C47.6613 7.70809 47.6084 7.98809 47.4672 8.21559C47.326 8.43434 47.1319 8.63559 46.876 8.77559C46.6202 8.91559 46.3466 8.96809 46.0643 8.96809C45.7819 8.96809 45.4996 8.91559 45.2437 8.77559C45.0017 8.64199 44.7982 8.44921 44.6525 8.21559C44.5159 7.96633 44.4488 7.6854 44.4584 7.40184C44.4584 7.08684 44.5202 6.80684 44.6525 6.58809C44.7937 6.32559 44.9966 6.16809 45.2437 6.02809C45.4996 5.88809 45.7731 5.82684 46.0643 5.82684C46.3451 5.82042 46.6229 5.88639 46.8703 6.01829C47.1178 6.15019 47.3265 6.3435 47.476 6.57934C47.6044 6.83445 47.6681 7.1168 47.6613 7.40184ZM44.6613 20.7893V10.2368H47.4672V20.8068H44.6525L44.6613 20.7893ZM54.9672 13.0018V13.0368C54.8349 12.9756 54.6584 12.9493 54.526 12.9231C54.3496 12.8881 54.2084 12.8881 54.0407 12.8881C53.2554 12.8881 52.6643 13.1156 52.276 13.5881C51.8525 14.0693 51.6584 14.7431 51.6584 15.6093V20.7981H48.8437V10.2281H51.429L51.5172 11.8293C51.7996 11.2693 52.1349 10.8493 52.6113 10.5343C53.0853 10.2283 53.6432 10.0754 54.2084 10.0968C54.4113 10.0968 54.6054 10.1143 54.7731 10.1493C54.8613 10.1756 54.9143 10.1756 54.9672 10.2018V13.0018ZM56.0966 20.7893V5.89684H58.9025V11.5843C59.2996 11.0768 59.7496 10.6831 60.3143 10.3768C61.2083 9.94217 62.2239 9.81887 63.1972 10.0268C64.1705 10.2348 65.0448 10.7619 65.679 11.5231C66.6304 12.6104 67.1344 14.0129 67.0907 15.4518C67.1053 16.919 66.5851 18.3421 65.626 19.4593C65.1824 19.975 64.6301 20.388 64.0081 20.6692C63.3862 20.9504 62.7096 21.093 62.026 21.0868C61.3829 21.1043 60.7458 20.9593 60.1747 20.6654C59.6036 20.3715 59.1172 19.9384 58.7613 19.4068L58.6731 20.7806L56.0966 20.8068V20.7893ZM61.5231 18.5843C62.026 18.5843 62.476 18.4443 62.8996 18.1906C63.2878 17.9106 63.6054 17.5431 63.8525 17.0968C64.0819 16.6506 64.1878 16.1168 64.1878 15.5218C64.1878 14.9356 64.0819 14.4018 63.8525 13.9556C63.6208 13.5253 63.2952 13.1516 62.8996 12.8618C62.4866 12.6067 62.0097 12.4714 61.5231 12.4714C61.0365 12.4714 60.5596 12.6067 60.1466 12.8618C59.7496 13.1418 59.4407 13.5093 59.1849 13.9556C58.9515 14.4477 58.8367 14.9869 58.8496 15.5306C58.8152 16.0474 58.9166 16.5642 59.144 17.0304C59.3713 17.4967 59.7168 17.8964 60.1466 18.1906C60.5613 18.4443 61.0113 18.5843 61.5231 18.5843ZM68.1496 20.7981V10.2281H70.7349L70.8231 11.6018C71.148 11.0753 71.6088 10.6443 72.158 10.3536C72.7071 10.0628 73.3246 9.92283 73.9466 9.94809C74.6579 9.93591 75.357 10.1319 75.9565 10.5117C76.556 10.8914 77.0293 11.438 77.3172 12.0831C77.626 12.7481 77.7937 13.5706 77.7937 14.4893V20.8243H74.979V14.8568C74.979 14.1218 74.8113 13.5443 74.476 13.1156C74.1407 12.6956 73.6819 12.4681 73.0996 12.4681C72.676 12.4681 72.3055 12.5556 71.979 12.7481C71.6702 12.9493 71.4143 13.2031 71.2202 13.5618C71.0239 13.9245 70.9266 14.3317 70.9378 14.7431V20.7981H68.1496ZM79.1966 20.7981V5.88809H82.0113V11.5756C82.3926 11.0653 82.8885 10.6501 83.4598 10.363C84.0311 10.0759 84.6621 9.92489 85.3025 9.92184C85.9674 9.91219 86.6259 10.0511 87.2293 10.3283C87.8326 10.6055 88.3653 11.0139 88.7878 11.5231C89.7325 12.6103 90.2329 14.0086 90.1907 15.4431C90.2061 16.9104 89.6858 18.3338 88.726 19.4506C88.2824 19.9663 87.7301 20.3793 87.1081 20.6605C86.4862 20.9417 85.8096 21.0842 85.126 21.0781C84.4829 21.0955 83.8458 20.9505 83.2747 20.6566C82.7036 20.3627 82.2172 19.9297 81.8613 19.3981L81.7819 20.7718L79.1966 20.7981ZM84.6496 18.5843C85.1613 18.5843 85.6113 18.4443 86.026 18.1906C86.4231 17.9106 86.7319 17.5431 86.9878 17.0968C87.2084 16.6506 87.3231 16.1168 87.3231 15.5218C87.3575 15.0051 87.2561 14.4883 87.0287 14.022C86.8013 13.5558 86.4559 13.156 86.026 12.8618C85.613 12.6067 85.1362 12.4714 84.6496 12.4714C84.163 12.4714 83.6861 12.6067 83.2731 12.8618C82.8849 13.1418 82.5672 13.5093 82.3202 13.9556C82.0739 14.4433 81.9584 14.9858 81.9849 15.5306C81.9505 16.0474 82.0519 16.5642 82.2793 17.0304C82.5066 17.4967 82.8521 17.8964 83.2819 18.1906C83.6966 18.4443 84.1202 18.5843 84.6496 18.5843Z" fill="#FF385C"/>
</g>
<defs>
<clipPath id="clip0">
<rect width="90" height="28" fill="white" transform="translate(0.5)"/>
</clipPath>
</defs>
</svg>

<svg width="91" height="28" fill="none" xmlns="http://www.w3.org/2000/svg"><g clip-path="url(#clip0)"><path d="M26.3 19.844c-.142-.34-.274-.7-.415-1.006l-.653-1.461-.027-.026c-1.94-4.2-4.014-8.47-6.211-12.67l-.089-.175c-.22-.412-.44-.867-.67-1.287-.282-.498-.556-1.032-1.006-1.54A4.672 4.672 0 0015.613.427a4.71 4.71 0 00-5.62 1.252c-.414.508-.723 1.042-1.005 1.54-.22.455-.441.902-.67 1.313l-.089.175c-2.162 4.2-4.27 8.47-6.212 12.67l-.053.052c-.194.455-.423.928-.644 1.435-.141.307-.282.64-.423 1.007a5.904 5.904 0 00.853 5.834A5.995 5.995 0 004.2 27.55c.965.393 2.016.53 3.05.398a7.434 7.434 0 002.805-.963c1.148-.638 2.25-1.566 3.486-2.905 1.235 1.34 2.364 2.267 3.485 2.914A7.441 7.441 0 0020.573 28a6.02 6.02 0 003.941-1.444 5.928 5.928 0 002.015-3.657 5.158 5.158 0 00-.23-3.062v.008zm-12.671 1.453c-1.518-1.925-2.506-3.693-2.841-5.206a4.512 4.512 0 01-.088-1.715c.061-.447.229-.84.458-1.173.53-.761 1.456-1.234 2.471-1.234.482-.014.96.09 1.391.304.431.214.802.53 1.08.921.229.35.397.735.45 1.182.088.507.052 1.093-.089 1.715-.335 1.487-1.323 3.272-2.832 5.206zm11.241 1.295c-.1.72-.39 1.403-.838 1.979a4.196 4.196 0 01-1.72 1.302c-.671.28-1.412.359-2.136.28a5.557 5.557 0 01-2.135-.735 13.769 13.769 0 01-3.203-2.712c1.853-2.275 2.973-4.35 3.397-6.195.203-.875.23-1.663.141-2.39a4.814 4.814 0 00-.759-1.924 4.718 4.718 0 00-1.73-1.488 4.763 4.763 0 00-2.232-.507c-1.632 0-3.088.752-3.97 1.986a4.51 4.51 0 00-.75 1.934 5.713 5.713 0 00.141 2.389c.424 1.846 1.57 3.946 3.397 6.212a12.617 12.617 0 01-3.203 2.73c-.732.42-1.43.639-2.135.726a4.226 4.226 0 01-3.086-.823 4.158 4.158 0 01-1.608-2.738c-.088-.7-.027-1.4.256-2.187.088-.28.22-.56.361-.893.195-.455.424-.927.645-1.4l.035-.061a285.304 285.304 0 016.15-12.609l.088-.175c.22-.42.441-.866.67-1.286.23-.446.477-.875.795-1.225a2.928 2.928 0 012.245-1.04 2.95 2.95 0 012.246 1.04c.309.35.565.779.794 1.225.22.42.441.875.67 1.286l.089.175a345.531 345.531 0 016.176 12.609l.027.026c.23.455.423.963.644 1.4.141.341.282.613.37.901.168.788.256 1.488.168 2.188zm12.283-1.488a4.46 4.46 0 01-1.927-.406 4.426 4.426 0 01-1.559-1.195 5.703 5.703 0 01-1.412-3.92 6.06 6.06 0 011.465-4.007 4.673 4.673 0 011.618-1.21 4.71 4.71 0 011.982-.418 3.82 3.82 0 011.852.422 3.783 3.783 0 011.413 1.258l.088-1.374h2.577v10.57h-2.586l-.088-1.54a3.975 3.975 0 01-1.473 1.352c-.6.318-1.27.48-1.95.468zm.67-2.52c.512 0 .962-.14 1.385-.393.389-.28.706-.648.953-1.094.22-.446.336-.98.336-1.575a2.97 2.97 0 00-.295-1.5 3 3 0 00-1.002-1.16 2.62 2.62 0 00-2.753 0c-.389.28-.706.647-.953 1.094a3.483 3.483 0 00-.336 1.575 2.97 2.97 0 00.295 1.5 3 3 0 001.002 1.16c.415.253.865.393 1.368.393zm9.838-11.182c0 .306-.053.586-.194.814a1.65 1.65 0 01-.591.56c-.256.14-.53.192-.812.192a1.69 1.69 0 01-.82-.192 1.618 1.618 0 01-.591-.56 1.582 1.582 0 01-.195-.814c0-.315.062-.595.195-.814.14-.262.344-.42.59-.56.257-.14.53-.201.821-.201a1.634 1.634 0 011.412.752c.128.255.192.538.185.823zm-3 13.387V10.237h2.806v10.57h-2.814l.008-.018zm10.306-7.787v.035c-.132-.061-.309-.088-.441-.114-.176-.035-.318-.035-.485-.035-.786 0-1.377.228-1.765.7-.424.481-.618 1.155-.618 2.021v5.19h-2.814v-10.57h2.585l.088 1.6c.283-.56.618-.98 1.094-1.295a2.753 2.753 0 011.597-.437c.203 0 .397.017.565.052.088.027.141.027.194.053v2.8zm1.13 7.787V5.897h2.806v5.687a4.443 4.443 0 011.411-1.207 4.463 4.463 0 012.883-.35 4.436 4.436 0 012.482 1.496 5.702 5.702 0 011.412 3.929 6.06 6.06 0 01-1.465 4.007 4.673 4.673 0 01-1.618 1.21 4.708 4.708 0 01-1.982.418 3.82 3.82 0 01-1.851-.422 3.784 3.784 0 01-1.414-1.258l-.088 1.374-2.576.026v-.018zm5.426-2.205c.503 0 .953-.14 1.377-.393.388-.28.705-.648.953-1.094.229-.446.335-.98.335-1.575 0-.586-.106-1.12-.336-1.566a3.29 3.29 0 00-.952-1.094 2.62 2.62 0 00-2.753 0c-.397.28-.706.647-.962 1.094a3.482 3.482 0 00-.335 1.575 2.97 2.97 0 00.294 1.5 3 3 0 001.003 1.16c.414.253.864.393 1.376.393zm6.627 2.214v-10.57h2.585l.088 1.374a3.482 3.482 0 011.335-1.248c.55-.291 1.167-.431 1.789-.406a3.64 3.64 0 012.01.564c.599.38 1.072.926 1.36 1.571.309.665.477 1.488.477 2.406v6.335h-2.815v-5.967c0-.735-.168-1.313-.503-1.741-.335-.42-.794-.648-1.376-.648-.424 0-.794.088-1.121.28a2.192 2.192 0 00-.759.814c-.196.363-.293.77-.282 1.181v6.055H68.15zm11.047 0V5.888h2.814v5.688c.382-.51.877-.926 1.449-1.213a4.149 4.149 0 011.843-.441c.664-.01 1.323.13 1.926.406a4.426 4.426 0 011.559 1.195 5.72 5.72 0 011.403 3.92 6.05 6.05 0 01-1.465 4.008 4.673 4.673 0 01-1.618 1.21 4.71 4.71 0 01-1.982.417 3.82 3.82 0 01-1.851-.421 3.784 3.784 0 01-1.414-1.259l-.08 1.374-2.584.026zm5.453-2.214c.511 0 .961-.14 1.376-.393.397-.28.706-.648.962-1.094.22-.446.335-.98.335-1.575a2.97 2.97 0 00-.294-1.5 3 3 0 00-1.003-1.16 2.62 2.62 0 00-2.753 0c-.388.28-.706.647-.953 1.094a3.154 3.154 0 00-.335 1.575 2.97 2.97 0 00.294 1.5 3 3 0 001.003 1.16c.415.253.838.393 1.368.393z" fill="#FF385C"/></g><defs><clipPath id="clip0"><path fill="#fff" transform="translate(.5)" d="M0 0h90v28H0z"/></clipPath></defs></svg>
